poi/svg/1816.svg

<?xml version="1.0" encoding="UTF-8" standalone="no"?>
<svg
   xmlns:dc="http://purl.org/dc/elements/1.1/"
   xmlns:cc="http://creativecommons.org/ns#"
   xmlns:rdf="http://www.w3.org/1999/02/22-rdf-syntax-ns#"
   xmlns:svg="http://www.w3.org/2000/svg"
   xmlns="http://www.w3.org/2000/svg"
   xmlns:sodipodi="http://sodipodi.sourceforge.net/DTD/sodipodi-0.dtd"
   xmlns:inkscape="http://www.inkscape.org/namespaces/inkscape"
   inkscape:version="1.0 (4035a4fb49, 2020-05-01)"
   sodipodi:docname="1816.svg"
   id="svg20"
   version="1.2"
   viewBox="0 0 42.519639 42.519639"
   height="14.999999mm"
   width="14.999999mm">
  <metadata
     id="metadata24">
    <rdf:RDF>
      <cc:Work
         rdf:about="">
        <dc:format>image/svg+xml</dc:format>
        <dc:type
           rdf:resource="http://purl.org/dc/dcmitype/StillImage" />
        <dc:title>Qt SVG Document</dc:title>
      </cc:Work>
    </rdf:RDF>
  </metadata>
  <sodipodi:namedview
     inkscape:current-layer="svg20"
     inkscape:window-maximized="0"
     inkscape:window-y="0"
     inkscape:window-x="0"
     inkscape:cy="28.346482"
     inkscape:cx="28.346482"
     inkscape:zoom="5.8410537"
     showgrid="false"
     id="namedview22"
     inkscape:window-height="480"
     inkscape:window-width="1034"
     inkscape:pageshadow="2"
     inkscape:pageopacity="0"
     guidetolerance="10"
     gridtolerance="10"
     objecttolerance="10"
     borderopacity="1"
     bordercolor="#666666"
     pagecolor="#ffffff" />
  <title
     id="title2">Qt SVG Document</title>
  <desc
     id="desc4">Generated with Qt</desc>
  <defs
     id="defs6" />
  <g
     transform="translate(5.25984,5.25984)"
     id="g18"
     stroke-linejoin="bevel"
     stroke-linecap="square"
     fill-rule="evenodd"
     stroke-width="1"
     stroke="#000000"
     fill="none">
    <g
       id="g10"
       font-style="normal"
       font-weight="400"
       font-size="7.8px"
       font-family="'MS Shell Dlg 2'"
       stroke="none"
       fill-opacity="1"
       fill="#a61215">
      <path
         id="path8"
         d="M 37.2598,16 C 37.2598,27.7415 27.7415,37.2598 16,37.2598 4.25851,37.2598 -5.25984,27.7415 -5.25984,16 -5.25984,4.25851 4.25851,-5.25984 16,-5.25984 27.7415,-5.25984 37.2598,4.25851 37.2598,16"
         fill-rule="evenodd"
         vector-effect="non-scaling-stroke" />
    </g>
    <g
       id="g14"
       font-style="normal"
       font-weight="400"
       font-size="7.8px"
       font-family="'MS Shell Dlg 2'"
       transform="translate(16,12.0315)"
       stroke="none"
       fill-opacity="0.94902"
       fill="#ffffff">
      <path
         id="path12"
         d="M 6.01709,8.83398 C 6.17106,10.0658 6.19556,11.2135 6.09058,12.2773 5.9856,13.3411 5.9611,14.118 6.01709,14.6079 c 0.06999,0.8259 -0.0105,1.5187 -0.24146,2.0786 -0.23095,0.5599 -0.75236,0.8399 -1.5642,0.8399 h -9.61622 c -0.40592,0 -0.62288,-0.1225 -0.65087,-0.3675 -0.028,-0.2449 0.02099,-0.5529 0.14697,-0.9238 0.12598,-0.3709 0.28345,-0.7803 0.47241,-1.2283 0.18897,-0.4479 0.31144,-0.8818 0.36743,-1.3017 0.11198,-0.8119 0.12598,-1.5257 0.04199,-2.1416 -0.08398,-0.6159 0,-1.2108 0.25196,-1.78469 0.18196,-0.25195 0.26595,-0.5214 0.25195,-0.80835 C -4.53695,8.68351 -4.58944,8.38957 -4.68042,8.08862 -4.7714,7.78768 -4.87288,7.47274 -4.98486,7.1438 -5.09684,6.81486 -5.16683,6.47542 -5.19482,6.12549 c -0.29395,-2.51953 -0.22396,-4.8711 0.20996,-7.054689 0.65787,-0.139971 1.28776,0.090983 1.88965,0.692871 0.60188,0.601888 1.0498,1.392738 1.34375,2.372558 0.19596,0.71387 0.25195,1.50122 0.16796,2.36206 -0.08398,0.86084 -0.25895,1.50122 -0.5249,1.92114 0.18197,-0.16797 0.33594,-0.43742 0.46192,-0.80835 0.12597,-0.37093 0.23095,-0.78035 0.31494,-1.22827 0.08398,-0.44791 0.12597,-0.89933 0.12597,-1.35425 0,-0.45491 -0.05599,-0.87133 -0.16797,-1.24926 C -1.51351,1.26139 -1.70597,0.788981 -1.95093,0.362061 -2.19588,-0.06486 -2.47583,-0.428792 -2.79077,-0.729736 -3.10571,-1.03068 -3.43465,-1.23714 -3.77759,-1.34912 -4.12052,-1.4611 -4.45296,-1.4751 -4.7749,-1.39111 h -0.08399 c 0.028,-0.20996 0.12948,-0.52141 0.30445,-0.93433 0.17496,-0.41292 0.35693,-0.83284 0.5459,-1.25977 0.18896,-0.42692 0.36043,-0.83634 0.5144,-1.22827 0.15397,-0.39192 0.25895,-0.67187 0.31494,-0.83984 0.26595,-0.65788 0.58439,-1.20378 0.95532,-1.6377 0.37093,-0.43391 0.76986,-0.75586 1.19678,-0.96582 0.426921,-0.20996 0.857341,-0.30794 1.29126,-0.29394 0.433919,0.014 0.81885,0.13297 1.15479,0.35693 0.23795,0.08399 0.4864,0.24846 0.74536,0.49341 0.25895,0.24495 0.5424,0.69637 0.85034,1.35425 -0.5459,0.40592 -1.00431,0.90983 -1.37525,1.51172 -0.37093,0.60189 -0.61238,1.31575 -0.724361,2.1416 -0.083984,0.57389 -0.090983,1.0533 -0.020996,1.43823 C 0.96403,-0.86971 1.08301,-0.540771 1.25098,-0.267822 1.41895,0.00512695 1.61141,0.236084 1.82837,0.425049 2.04533,0.614014 2.27279,0.778483 2.51074,0.918457 1.90885,0.232585 1.6499,-0.60026 1.73389,-1.58008 1.84587,-2.60189 2.04533,-3.45223 2.33228,-4.1311 c 0.28694,-0.67888 0.62638,-1.25627 1.01831,-1.73218 0.20996,0.60189 0.5319,1.41374 0.96582,2.43555 0.05599,0.18196 0.13997,0.41642 0.25195,0.70336 0.11198,0.28695 0.24145,0.5879 0.38843,0.90284 0.14697,0.31494 0.27645,0.62988 0.38842,0.944821 0.11198,0.314941 0.19597,0.570394 0.25196,0.766357 C 5.79313,0.6875 5.91211,1.48885 5.9541,2.2937 5.99609,3.09855 6.01009,3.8894 5.99609,4.66626 5.9821,5.44312 5.9611,6.18148 5.93311,6.88135 c -0.028,0.69987 0,1.35075 0.08398,1.95263 m -9.07031,6.52982 c 0.43392,-0.224 0.78735,-0.5564 1.0603,-0.9973 0.27295,-0.441 0.40942,-0.9204 0.40942,-1.4383 0.028,-0.2659 -0.02799,-0.6264 -0.16796,-1.0813 C -1.89144,11.392 -2.0839,10.9126 -2.32886,10.4087 -2.57381,9.90479 -2.83276,9.44637 -3.10571,9.03345 -3.37866,8.62052 -3.62012,8.33708 -3.83008,8.18311 c 0.15397,0.18196 0.32894,0.4864 0.5249,0.91333 0.19597,0.42692 0.38143,0.88533 0.5564,1.37526 0.17497,0.4899 0.32544,0.9623 0.45142,1.4172 0.12597,0.4549 0.18896,0.8014 0.18896,1.0393 -0.08398,0.9378 -0.39892,1.7497 -0.94482,2.4356 M 1.41895,5.55859 C 1.27897,6.28646 1.35246,6.97933 1.6394,7.63721 1.92635,8.29508 2.53174,8.88298 3.45557,9.40088 2.90967,8.88298 2.49325,8.31608 2.2063,7.7002 1.91935,7.08431 1.83187,6.47542 1.94385,5.87354 2.05583,5.21566 2.28328,4.67676 2.62622,4.25684 2.96916,3.83691 3.49756,3.47298 4.21143,3.16504 3.49756,3.389 2.88517,3.67244 2.37427,4.01538 1.86336,4.35832 1.54492,4.87272 1.41895,5.55859 M 4.73633,12.8442 C 4.48438,12.3263 4.26392,11.7209 4.07495,11.0281 3.88599,10.3352 3.8195,9.63184 3.87549,8.91797 3.93148,8.2321 4.04696,7.6757 4.22192,7.24878 4.39689,6.82186 4.63835,6.39144 4.94629,5.95752 4.58236,6.26546 4.27091,6.68538 4.01196,7.21729 3.75301,7.74919 3.56755,8.38607 3.45557,9.12793 3.38558,9.88379 3.47306,10.5907 3.71802,11.2485 c 0.24495,0.6579 0.58439,1.1898 1.01831,1.5957"
         fill-rule="evenodd"
         vector-effect="none" />
    </g>
    <g
       id="g16"
       font-style="normal"
       font-weight="400"
       font-size="7.8px"
       font-family="'MS Shell Dlg 2'"
       stroke="none"
       fill-opacity="1"
       fill="#a61215" />
  </g>
</svg>

<?xml version="1.0" encoding="UTF-8" standalone="no"?>
<svg width="11.2889mm" height="11.2889mm"
 viewBox="0 0 32 32"
 xmlns="http://www.w3.org/2000/svg" xmlns:xlink="http://www.w3.org/1999/xlink"  version="1.2" baseProfile="tiny">
<title>Qt SVG Document</title>
<desc>Generated with Qt</desc>
<defs>
</defs>
<g fill="none" stroke="black" stroke-width="1" fill-rule="evenodd" stroke-linecap="square" stroke-linejoin="bevel" >

<g fill="#a61215" fill-opacity="1" stroke="none" transform="matrix(1,0,0,1,0,0)"
font-family="MS Shell Dlg 2" font-size="7.8" font-weight="400" font-style="normal" 
>
<path vector-effect="non-scaling-stroke" fill-rule="evenodd" d="M37.2598,16 C37.2598,27.7415 27.7415,37.2598 16,37.2598 C4.25851,37.2598 -5.25984,27.7415 -5.25984,16 C-5.25984,4.25851 4.25851,-5.25984 16,-5.25984 C27.7415,-5.25984 37.2598,4.25851 37.2598,16 "/>
</g>

<g fill="#ffffff" fill-opacity="0.94902" stroke="none" transform="matrix(1,0,0,1,16,12.0315)"
font-family="MS Shell Dlg 2" font-size="7.8" font-weight="400" font-style="normal" 
>
<path vector-effect="none" fill-rule="evenodd" d="M6.01709,8.83398 C6.17106,10.0658 6.19556,11.2135 6.09058,12.2773 C5.9856,13.3411 5.9611,14.118 6.01709,14.6079 C6.08708,15.4338 6.00659,16.1266 5.77563,16.6865 C5.54468,17.2464 5.02327,17.5264 4.21143,17.5264 L-5.40479,17.5264 C-5.81071,17.5264 -6.02767,17.4039 -6.05566,17.1589 C-6.08366,16.914 -6.03467,16.606 -5.90869,16.2351 C-5.78271,15.8642 -5.62524,15.4548 -5.43628,15.0068 C-5.24731,14.5589 -5.12484,14.125 -5.06885,13.7051 C-4.95687,12.8932 -4.94287,12.1794 -5.02686,11.5635 C-5.11084,10.9476 -5.02686,10.3527 -4.7749,9.77881 C-4.59294,9.52686 -4.50895,9.25741 -4.52295,8.97046 C-4.53695,8.68351 -4.58944,8.38957 -4.68042,8.08862 C-4.7714,7.78768 -4.87288,7.47274 -4.98486,7.1438 C-5.09684,6.81486 -5.16683,6.47542 -5.19482,6.12549 C-5.48877,3.60596 -5.41878,1.25439 -4.98486,-0.929199 C-4.32699,-1.06917 -3.6971,-0.838216 -3.09521,-0.236328 C-2.49333,0.36556 -2.04541,1.15641 -1.75146,2.13623 C-1.5555,2.8501 -1.49951,3.63745 -1.5835,4.49829 C-1.66748,5.35913 -1.84245,5.99951 -2.1084,6.41943 C-1.92643,6.25146 -1.77246,5.98201 -1.64648,5.61108 C-1.52051,5.24015 -1.41553,4.83073 -1.33154,4.38281 C-1.24756,3.9349 -1.20557,3.48348 -1.20557,3.02856 C-1.20557,2.57365 -1.26156,2.15723 -1.37354,1.7793 C-1.51351,1.26139 -1.70597,0.788981 -1.95093,0.362061 C-2.19588,-0.06486 -2.47583,-0.428792 -2.79077,-0.729736 C-3.10571,-1.03068 -3.43465,-1.23714 -3.77759,-1.34912 C-4.12052,-1.4611 -4.45296,-1.4751 -4.7749,-1.39111 L-4.85889,-1.39111 C-4.83089,-1.60107 -4.72941,-1.91252 -4.55444,-2.32544 C-4.37948,-2.73836 -4.19751,-3.15828 -4.00854,-3.58521 C-3.81958,-4.01213 -3.64811,-4.42155 -3.49414,-4.81348 C-3.34017,-5.2054 -3.23519,-5.48535 -3.1792,-5.65332 C-2.91325,-6.3112 -2.59481,-6.8571 -2.22388,-7.29102 C-1.85295,-7.72493 -1.45402,-8.04688 -1.0271,-8.25684 C-0.600179,-8.4668 -0.169759,-8.56478 0.26416,-8.55078 C0.698079,-8.53678 1.08301,-8.41781 1.41895,-8.19385 C1.6569,-8.10986 1.90535,-7.94539 2.16431,-7.70044 C2.42326,-7.45549 2.70671,-7.00407 3.01465,-6.34619 C2.46875,-5.94027 2.01034,-5.43636 1.6394,-4.83447 C1.26847,-4.23258 1.02702,-3.51872 0.915039,-2.69287 C0.831055,-2.11898 0.824056,-1.63957 0.894043,-1.25464 C0.96403,-0.86971 1.08301,-0.540771 1.25098,-0.267822 C1.41895,0.00512695 1.61141,0.236084 1.82837,0.425049 C2.04533,0.614014 2.27279,0.778483 2.51074,0.918457 C1.90885,0.232585 1.6499,-0.60026 1.73389,-1.58008 C1.84587,-2.60189 2.04533,-3.45223 2.33228,-4.1311 C2.61922,-4.80998 2.95866,-5.38737 3.35059,-5.86328 C3.56055,-5.26139 3.88249,-4.44954 4.31641,-3.42773 C4.3724,-3.24577 4.45638,-3.01131 4.56836,-2.72437 C4.68034,-2.43742 4.80981,-2.13647 4.95679,-1.82153 C5.10376,-1.50659 5.23324,-1.19165 5.34521,-0.876709 C5.45719,-0.561768 5.54118,-0.306315 5.59717,-0.110352 C5.79313,0.6875 5.91211,1.48885 5.9541,2.2937 C5.99609,3.09855 6.01009,3.8894 5.99609,4.66626 C5.9821,5.44312 5.9611,6.18148 5.93311,6.88135 C5.90511,7.58122 5.93311,8.2321 6.01709,8.83398 M-3.05322,15.3638 C-2.6193,15.1398 -2.26587,14.8074 -1.99292,14.3665 C-1.71997,13.9255 -1.5835,13.4461 -1.5835,12.9282 C-1.5555,12.6623 -1.61149,12.3018 -1.75146,11.8469 C-1.89144,11.392 -2.0839,10.9126 -2.32886,10.4087 C-2.57381,9.90479 -2.83276,9.44637 -3.10571,9.03345 C-3.37866,8.62052 -3.62012,8.33708 -3.83008,8.18311 C-3.67611,8.36507 -3.50114,8.66951 -3.30518,9.09644 C-3.10921,9.52336 -2.92375,9.98177 -2.74878,10.4717 C-2.57381,10.9616 -2.42334,11.434 -2.29736,11.8889 C-2.17139,12.3438 -2.1084,12.6903 -2.1084,12.9282 C-2.19238,13.866 -2.50732,14.6779 -3.05322,15.3638 M1.41895,5.55859 C1.27897,6.28646 1.35246,6.97933 1.6394,7.63721 C1.92635,8.29508 2.53174,8.88298 3.45557,9.40088 C2.90967,8.88298 2.49325,8.31608 2.2063,7.7002 C1.91935,7.08431 1.83187,6.47542 1.94385,5.87354 C2.05583,5.21566 2.28328,4.67676 2.62622,4.25684 C2.96916,3.83691 3.49756,3.47298 4.21143,3.16504 C3.49756,3.389 2.88517,3.67244 2.37427,4.01538 C1.86336,4.35832 1.54492,4.87272 1.41895,5.55859 M4.73633,12.8442 C4.48438,12.3263 4.26392,11.7209 4.07495,11.0281 C3.88599,10.3352 3.8195,9.63184 3.87549,8.91797 C3.93148,8.2321 4.04696,7.6757 4.22192,7.24878 C4.39689,6.82186 4.63835,6.39144 4.94629,5.95752 C4.58236,6.26546 4.27091,6.68538 4.01196,7.21729 C3.75301,7.74919 3.56755,8.38607 3.45557,9.12793 C3.38558,9.88379 3.47306,10.5907 3.71802,11.2485 C3.96297,11.9064 4.30241,12.4383 4.73633,12.8442 "/>
</g>

<g fill="#a61215" fill-opacity="1" stroke="none" transform="matrix(1,0,0,1,0,0)"
font-family="MS Shell Dlg 2" font-size="7.8" font-weight="400" font-style="normal" 
>
</g>
</g>
</svg>
